X:2244
T:Polska på fiol av Oskar Tidner (känd melodi, här varierad
O:Västerås, Västmanland
R:Polska
B:[[http://www.smus.se/earkiv/fmk/browselarge.php?lang=sw&katalogid=S%F6+4&bildnr=00003|SMUS - katalog Sö4 bild 3]]
B:Jämför [[http://www.smus.se/earkiv/fmk/browselarge.php?lang=sw&katalogid=S%F6+4&bildnr=00021|SMUS - katalog Sö4 bild 21]]
S:upptecknad av [[Personer/George Bladini]]
S:efter [[Personer/Oskar Tidner]], Kopparbergsvägen 20, Västerås. Född 1847 i Bellafors ([[http://www.smus.se/earkiv/fmk/browselarge.php?lang=sw&katalogid=S%F6+4&bildnr=00008|källa]])
N:Georg Bladini föddes 1854.
M:3/4
L:1/8
Z:Nils L
K:D
{/A} dc de fd | dc Bc dB | BA AB AG | GF F2 D2 |] DF AF AF | DG BG BG | Ec Ec ec | 
dc dA GE | DF AF AF | DG BG BG | Ac ec ec | d2 D4 ]|
(:musicend:)

(:title Prästens lilla kråka:)
(:music:)
